src/assets/safari-pinned-tab.svg

<svg xmlns="http://www.w3.org/2000/svg" width="900" height="900" fill="none"><g fill="#000000" clip-path="url(#a)"><path fill-rule="evenodd" d="M314.556 400.633a57.505 57.505 0 0 0 2.348 18.285 94.91 94.91 0 0 0 6.681 14.702 9.485 9.485 0 0 1 1.446 4.66 7.816 7.816 0 0 1-1.235 3.532 7.884 7.884 0 0 1-2.74 2.564l-13.002 8.604a10.4 10.4 0 0 1-5.418 1.792 8.652 8.652 0 0 1-6.14-2.867 46.941 46.941 0 0 1-7.405-9.501c-2.048-3.462-4.154-7.465-6.32-12.011-16.135 18.885-36.361 28.327-60.679 28.325-17.337 0-31.063-4.901-41.176-14.702-10.113-9.797-15.17-22.944-15.17-39.439 0-17.445 6.26-31.488 18.782-42.128 12.517-10.633 29.372-15.951 50.567-15.955 7.312.025 14.614.564 21.85 1.613 7.587 1.076 15.473 2.57 23.659 4.482v-15.058c0-15.535-3.251-26.471-9.752-32.807-6.502-6.33-17.698-9.497-33.59-9.501a96.465 96.465 0 0 0-22.214 2.689 159.479 159.479 0 0 0-22.213 6.992 56.604 56.604 0 0 1-7.224 2.689c-1.06.299-2.15.479-3.249.537-2.89 0-4.336-2.151-4.336-6.453v-10.039a13.334 13.334 0 0 1 1.446-7.171 14.856 14.856 0 0 1 5.778-4.303 135.723 135.723 0 0 1 26.007-9.321 127.36 127.36 0 0 1 32.144-3.945c24.561 0 42.561 5.558 53.998 16.673 11.435 11.114 17.153 27.906 17.157 50.374v66.688Zm-83.797 31.195a66.962 66.962 0 0 0 21.311-3.766 45.083 45.083 0 0 0 19.504-13.087 32.272 32.272 0 0 0 7.042-13.087 68.814 68.814 0 0 0 1.988-17.747v-8.605a179.346 179.346 0 0 0-18.963-3.406 154.68 154.68 0 0 0-19.323-1.254c-13.725 0-23.959 2.748-30.701 8.245-6.744 5.502-10.115 13.39-10.113 23.663 0 9.564 2.528 16.795 7.584 21.693 5.057 4.902 12.281 7.352 21.671 7.351Z" clip-rule="evenodd"/><path d="M396.544 454.056a12.899 12.899 0 0 1-7.945-1.973 15.96 15.96 0 0 1-4.335-8.067l-48.398-158.473a36.079 36.079 0 0 1-1.806-8.247 4.413 4.413 0 0 1 1.263-3.764 4.502 4.502 0 0 1 3.792-1.256h20.228a12.87 12.87 0 0 1 8.127 1.972 17.147 17.147 0 0 1 4.152 8.067l34.676 135.529 32.144-135.529c.959-4.061 2.284-6.75 3.974-8.067a13.685 13.685 0 0 1 8.306-1.972h16.615c2.91-.243 5.823.448 8.308 1.972 1.681 1.317 3.005 4.006 3.972 8.067l32.507 137.322 35.758-137.322a17.029 17.029 0 0 1 4.154-8.067 12.835 12.835 0 0 1 8.127-1.972h19.141a4.482 4.482 0 0 1 3.793 1.256c.49.487.86 1.081 1.079 1.734.22.653.283 1.348.185 2.03a16.754 16.754 0 0 1-.36 3.227 44.722 44.722 0 0 1-1.445 5.02l-49.843 158.473a16.036 16.036 0 0 1-4.335 8.067 12.908 12.908 0 0 1-7.946 1.973h-17.698a12.782 12.782 0 0 1-8.308-2.151 15.438 15.438 0 0 1-3.973-8.247l-32.146-131.942-31.783 131.942a15.535 15.535 0 0 1-3.973 8.247 12.807 12.807 0 0 1-8.308 2.151h-17.699ZM629.871 455.849a141.049 141.049 0 0 0 31.785 3.585 103.14 103.14 0 0 0 29.256-3.943 67.592 67.592 0 0 0 22.935-11.475 54.357 54.357 0 0 0 14.989-18.105 51.522 51.522 0 0 0 5.418-23.843 46.06 46.06 0 0 0-9.572-28.683c-6.382-8.363-17.037-14.936-31.964-19.72l-29.256-9.322c-11.079-3.586-18.664-7.35-22.756-11.294a19.436 19.436 0 0 1-4.617-6.615 19.319 19.319 0 0 1-1.522-7.906c0-8.364 3.251-14.459 9.751-18.286 6.5-3.824 15.651-5.736 27.452-5.736a96.66 96.66 0 0 1 39.73 7.888 21.937 21.937 0 0 0 7.946 2.51c3.13 0 4.696-2.152 4.696-6.454v-9.68a11.475 11.475 0 0 0-1.806-6.813 19.705 19.705 0 0 0-6.141-5.02 53.232 53.232 0 0 0-8.669-3.585c-3.616-1.194-7.528-2.269-11.739-3.226-4.212-.955-8.667-1.732-13.363-2.331-4.611-.59-9.256-.89-13.905-.897a92.467 92.467 0 0 0-26.007 3.586 65.538 65.538 0 0 0-21.49 10.577 55.224 55.224 0 0 0-14.808 16.851 45.268 45.268 0 0 0-5.599 22.767 48.314 48.314 0 0 0 10.293 29.759c6.864 9.084 17.88 16.016 33.049 20.796l29.979 9.322c10.109 3.349 17.032 6.934 20.769 10.756a19.786 19.786 0 0 1 4.259 6.609 19.671 19.671 0 0 1 1.338 7.732 21.597 21.597 0 0 1-2.668 11.123 21.795 21.795 0 0 1-7.986 8.239c-7.104 4.542-17.157 6.813-30.159 6.813a122.27 122.27 0 0 1-24.561-2.511 109.501 109.501 0 0 1-22.754-7.171c-2.172-.952-3.918-1.669-5.238-2.151a11.214 11.214 0 0 0-3.792-.716c-3.13 0-4.696 2.15-4.696 6.452v10.398c-.084 2.456.6 4.877 1.958 6.932a11.97 11.97 0 0 0 5.627 4.541 92.812 92.812 0 0 0 23.838 8.247ZM700.693 559.067c-67.955 49.782-166.472 76.253-251.307 76.253-118.895 0-225.963-43.627-306.983-116.247-6.362-5.705-.688-13.491 6.96-9.076C236.777 560.49 344.877 590.9 456.526 590.9c80.492-.392 160.113-16.566 234.29-47.594 11.486-4.836 21.119 7.514 9.877 15.761Z"/><path d="M728.971 527.018c-8.687-11.035-57.37-5.243-79.305-2.634l-.054.007c-6.636.789-7.666-4.968-1.685-9.135 38.902-27.12 102.636-19.292 110.045-10.209 7.462 9.157-1.962 72.592-38.412 102.863-5.609 4.653-10.942 2.171-8.456-3.976 8.204-20.336 26.567-65.861 17.867-76.916Z"/></g><defs><clipPath id="a"><path fill="#fff" d="M0 0h900v900H0z"/></clipPath></defs></svg>

<svg width="900" height="900" viewBox="0 0 900 900" fill="none" xmlns="http://www.w3.org/2000/svg">
<path fill-rule="evenodd" clip-rule="evenodd" d="M314.556 400.633C314.35 406.814 315.143 412.987 316.904 418.919C318.708 423.998 320.944 428.916 323.585 433.62C324.466 435.023 324.964 436.629 325.031 438.28C324.912 439.539 324.488 440.751 323.796 441.812C323.104 442.873 322.164 443.753 321.056 444.377L308.054 452.98C306.453 454.07 304.575 454.691 302.636 454.773C301.47 454.732 300.325 454.457 299.27 453.964C298.214 453.471 297.271 452.771 296.496 451.905C293.628 449.067 291.139 445.873 289.091 442.404C287.043 438.942 284.937 434.939 282.771 430.393C266.636 449.278 246.41 458.72 222.092 458.718C204.755 458.718 191.029 453.818 180.916 444.016C170.803 434.219 165.746 421.072 165.746 404.577C165.746 387.132 172.006 373.09 184.528 362.449C197.045 351.817 213.9 346.498 235.095 346.494C242.407 346.519 249.709 347.058 256.945 348.107C264.532 349.183 272.418 350.677 280.604 352.589V337.531C280.604 321.996 277.353 311.06 270.852 304.724C264.35 298.394 253.154 295.227 237.262 295.223C229.777 295.255 222.321 296.157 215.048 297.912C207.481 299.699 200.056 302.036 192.835 304.904C190.491 305.963 188.078 306.862 185.611 307.593C184.551 307.892 183.461 308.072 182.362 308.13C179.472 308.13 178.026 305.979 178.026 301.677V291.638C177.83 289.161 178.33 286.679 179.472 284.467C181.012 282.583 182.997 281.105 185.25 280.165C193.575 276.182 202.289 273.059 211.257 270.843C221.757 268.166 232.56 266.84 243.401 266.898C267.962 266.898 285.962 272.456 297.399 283.571C308.834 294.685 314.552 311.477 314.556 333.945V400.633ZM230.759 431.828C238.022 431.737 245.221 430.465 252.07 428.062C259.624 425.492 266.356 420.976 271.574 414.975C274.911 411.213 277.322 406.733 278.616 401.888C280.047 396.082 280.715 390.117 280.604 384.141V375.536C274.35 374.062 268.02 372.925 261.641 372.13C255.234 371.309 248.779 370.89 242.318 370.876C228.593 370.876 218.359 373.624 211.617 379.121C204.873 384.623 201.502 392.511 201.504 402.784C201.504 412.348 204.032 419.579 209.088 424.477C214.145 429.379 221.369 431.829 230.759 431.828Z" fill="#273A38"/>
<path d="M396.544 454.056C393.75 454.278 390.959 453.585 388.599 452.083C386.394 449.87 384.888 447.067 384.264 444.016L335.866 285.543C334.943 282.873 334.337 280.106 334.06 277.296C333.962 276.615 334.025 275.92 334.244 275.266C334.463 274.613 334.833 274.019 335.323 273.532C335.814 273.045 336.412 272.677 337.07 272.46C337.728 272.242 338.428 272.179 339.115 272.276H359.343C362.198 272.011 365.06 272.705 367.47 274.248C369.556 276.521 370.989 279.306 371.622 282.315L406.298 417.844L438.442 282.315C439.401 278.254 440.726 275.565 442.416 274.248C444.9 272.723 447.812 272.031 450.722 272.276H467.337C470.247 272.033 473.16 272.724 475.645 274.248C477.326 275.565 478.65 278.254 479.617 282.315L512.124 419.637L547.882 282.315C548.509 279.304 549.945 276.517 552.036 274.248C554.445 272.703 557.307 272.008 560.163 272.276H579.304C579.991 272.179 580.692 272.242 581.35 272.46C582.008 272.678 582.606 273.045 583.097 273.532C583.587 274.019 583.957 274.613 584.176 275.266C584.396 275.919 584.459 276.615 584.361 277.296C584.346 278.381 584.225 279.461 584.001 280.523C583.618 282.222 583.135 283.899 582.556 285.543L532.713 444.016C532.085 447.065 530.579 449.868 528.378 452.083C526.017 453.585 523.227 454.278 520.432 454.056H502.734C499.797 454.317 496.86 453.557 494.426 451.905C492.296 449.616 490.911 446.741 490.453 443.658L458.307 311.716L426.524 443.658C426.06 446.74 424.676 449.613 422.551 451.905C420.116 453.555 417.18 454.315 414.243 454.056H396.544Z" fill="#273A38"/>
<path d="M629.871 455.849C640.293 458.245 650.958 459.448 661.656 459.434C671.548 459.529 681.403 458.201 690.912 455.491C699.227 453.161 707.013 449.265 713.847 444.016C720.112 439.137 725.227 432.958 728.836 425.911C732.531 418.506 734.388 410.331 734.254 402.068C734.386 391.713 731.015 381.614 724.682 373.385C718.3 365.022 707.645 358.449 692.718 353.665L663.462 344.344C652.383 340.758 644.798 336.993 640.706 333.049C638.719 331.188 637.146 328.934 636.089 326.434C635.032 323.933 634.513 321.24 634.567 318.528C634.567 310.164 637.818 304.069 644.318 300.242C650.818 296.418 659.969 294.506 671.77 294.506C685.427 294.301 698.972 296.99 711.5 302.394C713.962 303.73 716.659 304.582 719.446 304.904C722.576 304.904 724.142 302.752 724.142 298.45V288.77C724.27 286.368 723.639 283.986 722.336 281.957C720.653 279.888 718.564 278.18 716.195 276.937C713.418 275.49 710.517 274.29 707.526 273.352C703.91 272.158 699.998 271.083 695.787 270.126C691.575 269.171 687.12 268.394 682.424 267.795C677.813 267.205 673.168 266.906 668.519 266.898C659.721 266.851 650.963 268.058 642.512 270.484C634.753 272.663 627.467 276.249 621.022 281.061C614.978 285.614 609.938 291.349 606.214 297.912C602.379 304.887 600.448 312.735 600.615 320.679C600.622 331.458 604.244 341.928 610.908 350.438C617.772 359.522 628.788 366.454 643.957 371.234L673.936 380.556C684.045 383.905 690.968 387.49 694.705 391.312C696.554 393.211 698.003 395.458 698.964 397.921C699.925 400.384 700.38 403.013 700.302 405.653C700.429 409.531 699.508 413.371 697.634 416.776C695.761 420.181 693.003 423.026 689.648 425.015C682.544 429.557 672.491 431.828 659.489 431.828C651.237 431.822 643.007 430.98 634.928 429.317C627.101 427.762 619.471 425.357 612.174 422.146C610.002 421.194 608.256 420.477 606.936 419.995C605.724 419.539 604.44 419.297 603.144 419.279C600.014 419.279 598.448 421.43 598.448 425.731V436.129C598.364 438.585 599.048 441.006 600.406 443.061C601.764 445.115 603.73 446.701 606.033 447.602C613.561 451.421 621.582 454.196 629.871 455.849Z" fill="#273A38"/>
<path d="M700.693 559.067C632.738 608.849 534.221 635.32 449.386 635.32C330.491 635.32 223.423 591.693 142.403 519.073C136.041 513.368 141.715 505.582 149.363 509.997C236.777 560.49 344.877 590.9 456.526 590.9C537.018 590.508 616.639 574.334 690.816 543.307C702.302 538.47 711.935 550.82 700.693 559.067Z" fill="#273A38"/>
<path d="M728.971 527.018C720.284 515.983 671.601 521.775 649.666 524.384L649.612 524.391C642.976 525.181 641.946 519.423 647.927 515.256C686.829 488.136 750.563 495.964 757.972 505.047C765.434 514.204 756.01 577.639 719.56 607.91C713.951 612.563 708.618 610.081 711.104 603.934C719.308 583.598 737.671 538.073 728.971 527.018Z" fill="#273A38"/>
</svg>
